X:332
T:
R:polska
S:Uppt. efter en notbok tillhörig skoll. S. P. Dalström i Hejde. % rättelse i originalet
O:Gotland, Hejde
M:3/4
L:1/16
K:Dm
d2de fegf ed^cA|d2ba bagf gfef|d2de fede gfed|^cdec A4 A,4::A^cec Adfd A^cec|
A2ag agfe gfed|A^cec Adfd A^cec|A2ag agfe gfef|d2ba bagf gfed|^cA=B^c e3d d4::
a2ba gfed cBAG|g2ba gfed cBAG|F2FA d2de f2ed|d^cec A4 A,4::A,2d'2 d'2c'2c'2b2|
b2a2 a2ga g2f2|f2b2 b2a2 a2ga|g2f2 f2e2 e2d2|A4d2de f2ed|d^cec A2G2F2E2|
F2a2 E2g2 D2f2|fed^c [^c3e3]d d4:|

